X:361
T:Toss the Feathers
Z: id:dc-reel-337
M:C
L:1/8
K:E Dorian
EBB2 dBB2|EBB2 ADFA|EBBA B2AB|dffe dBAF:|!
e2df e2de|fede fee2|febe febe|fede fee2|!
Beef e2de|fede faaf|b3f a3f|effe dBAF|]!

